X: 1
T: the Telegraph Post
O: Kerr's 4th
B: Kerr's 4th
R: hornpipe
Z: 2006 John Chambers <jc:trillian.mit.edu>
M: C|
L: 1/8
K: C
"G7"gf \
| "C"eg ec "G7"df dB  | "C"cd ec     G2 c2 |"Dm"d^c de "D7"fe d=c | "G"B2 g2 "G7"g2 gf |
| "C"eg ec "G7"df dB  | "C"cd ec "C7"G2 c2 | "F"Aa  gf "G7"ed cB  | "C"d2 c2     c2   :|
|: G2 \
| "C"GE Gc  "F"AF Ac  | "G"BG Bd "Am"c2 de |"Dm"fe  fg  "F"ag fe | "G"dc BA G2 G2 |
| "F"A^G AF "G"BA B=G |"Am"cB cA  "G"d2 cB | "C"ca  gf "G7"ed cB | "C"d2 c2 c2   :|
